X:43
T: WER IST EIN MANN WER BETEN KANN
N: B0052
O: Europa, Mitteleuropa, Deutschland
R: Kriegs -, Sieges -, Soldaten - Lied
M: 4/4
L: 1/16
K: Bb
 | B,4B,3DF4B4 | e4B4G6
c2 | A4F4B4B4 | A12
A4 | d6c2B4d4 | f6e2d4
c4 | B4B3cd4c4 | B12z4

@@@ Tune index: 1846
